X:305
T:Ships Are Sailing
M:C|
L:1/8
Q:200
S:THSP
R:reel
H:
Z:
K:Edor
"Em"Beed BcdB|"D"AD (3FED AD (3FED|"Em"~E3F GFGA|"D"(3Bcd ef gfed|
"Em"Beed BcdB|"D"AD (3FED AD (3FED|"Em"~E3F GFGA
|1 "D"(3Bcd ed "Em"e2ed:|2 "D"(3Bcd ed "Em"e2ef||:
"Em"gfga bgeg|"D"fefg afdf|"Em"~g3a bgeg|"D"fedf "Em"e2ef|
~g3a bgeg|"D"~f3g afdf|"G"~g2bg "D"~f2af
|1 "Em"edef g2ef:|2 "Em"edef "D"gfed|]
